lib/bbc/channels/radio1.large.svg

<?xml version="1.0" encoding="utf-8"?>
<!-- Generator: Adobe Illustrator 12.0.0, SVG Export Plug-In  -->
<!DOCTYPE svg PUBLIC "-//W3C//DTD SVG 1.1//EN" "http://www.w3.org/Graphics/SVG/1.1/DTD/svg11.dtd" [
	<!ENTITY ns_flows "http://ns.adobe.com/Flows/1.0/">
	<!ENTITY ns_svg "http://www.w3.org/2000/svg">
	<!ENTITY ns_xlink "http://www.w3.org/1999/xlink">
]>
<svg  version="1.1" xmlns="&ns_svg;" xmlns:xlink="&ns_xlink;" xmlns:a="http://ns.adobe.com/AdobeSVGViewerExtensions/3.0/"
	 width="37" height="21" viewBox="-0.891 -0.721 37 21" enable-background="new -0.891 -0.721 37 21" xml:space="preserve">
<defs>
</defs>
<g id="XMLID_15_">
	<g>
		<rect x="21.988" y="1.822" fill="#FFFFFF" width="8.66" height="16.12"/>
	</g>
	<g>
		<rect x="21.988" y="1.822" fill="none" stroke="#FF601F" width="8.66" height="16.12"/>
	</g>
</g>
<path fill="#120B14" d="M11.778,1.136c-0.017-0.004-0.036-0.006-0.054-0.01l-0.022-0.003c-0.03-0.004-0.061-0.008-0.093-0.01
	c-0.021-0.003-0.043-0.004-0.064-0.005c-0.038-0.003-0.075-0.004-0.111-0.004c-0.016,0-0.027,0.001-0.043,0.001
	c-0.031,0-0.06,0.002-0.089,0.004c-0.016,0.001-0.033,0.002-0.048,0.004c-0.025,0.002-0.048,0.004-0.071,0.007l-0.02,0.003
	l-0.022,0.003l-0.027,0.005c-0.011,0.001-0.022,0.003-0.033,0.006c-0.017,0.002-0.033,0.005-0.047,0.009
	c-0.096,0.02-0.184,0.046-0.265,0.078c-0.042,0.017-0.082,0.034-0.12,0.053c-0.033,0.016-0.063,0.032-0.093,0.049
	c-0.028,0.016-0.055,0.033-0.082,0.051c-0.015,0.01-0.03,0.02-0.045,0.031c-0.013,0.009-0.025,0.017-0.037,0.026
	c-0.025,0.02-0.05,0.041-0.073,0.061c-0.021,0.019-0.042,0.038-0.062,0.057c-0.016,0.016-0.034,0.033-0.049,0.053
	c-0.017,0.017-0.033,0.036-0.048,0.055c-0.018,0.02-0.032,0.041-0.048,0.062c-0.013,0.017-0.023,0.033-0.034,0.05
	c-0.008,0.012-0.015,0.023-0.021,0.035c-0.043,0.067-0.079,0.141-0.11,0.219C9.91,2.123,9.883,2.229,9.868,2.339
	C9.864,2.375,9.86,2.41,9.857,2.447C9.855,2.475,9.855,2.504,9.855,2.532c0,0.022,0,0.043,0,0.064
	C9.857,2.618,9.86,2.639,9.862,2.661l0.002,0.015c0.003,0.026,0.007,0.051,0.012,0.075c0.002,0.011,0.004,0.02,0.006,0.03
	c0.004,0.02,0.009,0.04,0.013,0.061C9.903,2.867,9.91,2.894,9.919,2.918c0.01,0.031,0.022,0.061,0.033,0.09
	c0.02,0.046,0.042,0.09,0.063,0.132c0.014,0.024,0.028,0.048,0.042,0.072c0.012,0.018,0.023,0.035,0.035,0.053
	c0.016,0.023,0.032,0.044,0.048,0.065c0.017,0.022,0.035,0.042,0.053,0.062c0.02,0.024,0.042,0.047,0.063,0.068l0.01,0.011
	c0.019,0.016,0.037,0.035,0.058,0.053c0.015,0.012,0.03,0.026,0.047,0.038c0.015,0.012,0.031,0.025,0.048,0.037
	c0.021,0.015,0.041,0.029,0.064,0.044c0.025,0.014,0.05,0.03,0.076,0.046c0.053,0.029,0.112,0.058,0.176,0.084
	c0.024,0.01,0.049,0.018,0.075,0.027c0.025,0.009,0.051,0.017,0.078,0.025c0.047,0.013,0.096,0.025,0.146,0.035
	c0.041,0.008,0.085,0.014,0.129,0.019c0.043,0.006,0.089,0.01,0.135,0.012c0.024,0.002,0.047,0.002,0.07,0.004h0.033
	c0.085,0,0.162-0.004,0.235-0.01l0.014-0.001c0.029-0.002,0.056-0.006,0.083-0.01c0.043-0.004,0.081-0.01,0.118-0.017
	c0.024-0.004,0.047-0.009,0.069-0.013c0.036-0.008,0.068-0.017,0.099-0.024c0.024-0.006,0.046-0.013,0.068-0.02
	c0.026-0.007,0.05-0.016,0.074-0.024l0.023-0.007c0.011-0.005,0.027-0.01,0.044-0.017c0.025-0.009,0.054-0.021,0.087-0.036
	c0.02-0.008,0.042-0.018,0.064-0.027c0.018-0.01,0.04-0.02,0.061-0.03c0.008-0.004,0.018-0.009,0.027-0.012V3.131
	c-0.007,0.004-0.014,0.008-0.019,0.012l-0.035,0.02c-0.036,0.022-0.07,0.042-0.104,0.061c-0.036,0.02-0.074,0.039-0.111,0.057
	c-0.063,0.03-0.124,0.055-0.183,0.076c-0.113,0.04-0.215,0.065-0.306,0.082c-0.011,0.001-0.022,0.003-0.032,0.005
	c-0.026,0.003-0.049,0.007-0.073,0.009c-0.035,0.004-0.069,0.006-0.098,0.007c-0.02,0.001-0.038,0.002-0.055,0.002
	c-0.036,0-0.074-0.001-0.113-0.004c-0.045-0.003-0.09-0.009-0.137-0.016c-0.074-0.013-0.149-0.032-0.221-0.058
	c-0.012-0.003-0.022-0.008-0.033-0.013c-0.007-0.002-0.014-0.005-0.022-0.008c-0.011-0.005-0.023-0.01-0.035-0.015
	c-0.025-0.012-0.05-0.025-0.075-0.039c-0.011-0.007-0.023-0.015-0.036-0.022c-0.011-0.008-0.024-0.016-0.036-0.025
	c-0.015-0.009-0.03-0.02-0.044-0.032c-0.015-0.011-0.028-0.023-0.041-0.033l-0.017-0.015l-0.008-0.008l-0.005-0.005l-0.007-0.006
	c-0.023-0.023-0.044-0.046-0.064-0.07c-0.01-0.012-0.02-0.026-0.031-0.038c-0.009-0.013-0.017-0.026-0.025-0.039
	c-0.009-0.012-0.016-0.024-0.023-0.037c-0.011-0.017-0.021-0.035-0.03-0.054c-0.007-0.015-0.014-0.031-0.02-0.045
	c-0.012-0.026-0.021-0.052-0.028-0.078c-0.007-0.018-0.012-0.039-0.018-0.057C10.37,2.692,10.363,2.644,10.359,2.6
	c-0.003-0.016-0.003-0.031-0.004-0.045c-0.001-0.02-0.001-0.037-0.001-0.052V2.471c0.001-0.03,0.005-0.067,0.01-0.109
	c0.004-0.027,0.009-0.054,0.016-0.083c0.005-0.02,0.01-0.039,0.016-0.059c0.006-0.018,0.012-0.036,0.02-0.056
	c0.004-0.013,0.01-0.025,0.016-0.038c0.007-0.018,0.016-0.035,0.025-0.052c0.007-0.014,0.014-0.027,0.022-0.04
	c0.017-0.029,0.036-0.059,0.058-0.088c0.007-0.01,0.016-0.021,0.024-0.031c0.011-0.013,0.022-0.027,0.034-0.04
	c0.007-0.006,0.013-0.013,0.019-0.019c0.095-0.094,0.201-0.165,0.31-0.215c0.018-0.008,0.035-0.015,0.052-0.022
	c0.018-0.007,0.035-0.013,0.053-0.019c0.018-0.007,0.037-0.012,0.057-0.017c0.018-0.006,0.037-0.01,0.055-0.015
	c0.018-0.004,0.036-0.007,0.054-0.011c0.02-0.003,0.039-0.006,0.06-0.009c0.019-0.002,0.039-0.005,0.059-0.006
	c0.038-0.003,0.074-0.005,0.109-0.005c0.014,0,0.025,0,0.037,0.001c0.027,0,0.052,0.001,0.078,0.002
	c0.018,0.002,0.035,0.002,0.052,0.004c0.032,0.004,0.064,0.007,0.093,0.012c0.027,0.004,0.053,0.008,0.076,0.012
	c0.037,0.009,0.071,0.017,0.102,0.025c0.019,0.004,0.037,0.01,0.054,0.015c0.024,0.008,0.046,0.014,0.063,0.02
	c0.028,0.01,0.044,0.015,0.044,0.015c0.025,0.009,0.05,0.02,0.075,0.029c0.033,0.014,0.064,0.027,0.094,0.041
	c0.025,0.012,0.048,0.024,0.07,0.033c0.019,0.01,0.036,0.019,0.052,0.027c0.028,0.015,0.052,0.028,0.072,0.039l0.053,0.028V1.334
	c0,0-0.033-0.013-0.087-0.034c-0.024-0.008-0.053-0.019-0.086-0.03c-0.017-0.007-0.036-0.014-0.056-0.021
	c-0.016-0.004-0.032-0.01-0.05-0.016C12.14,1.228,12.121,1.22,12.1,1.214c-0.016-0.004-0.03-0.01-0.047-0.014L12.04,1.196
	c-0.015-0.004-0.031-0.008-0.045-0.012c-0.019-0.005-0.038-0.01-0.056-0.015c-0.012-0.002-0.025-0.005-0.037-0.008
	c-0.021-0.005-0.04-0.01-0.061-0.014S11.8,1.139,11.778,1.136 M9.249,0.61h4.014v3.777H9.249V0.61z"/>
<path fill="#120B14" d="M6.165,2.699V3.44h0.481c0,0,0.011-0.001,0.025-0.001c0.017-0.001,0.04-0.002,0.068-0.004
	C6.791,3.431,6.86,3.42,6.927,3.398c0.061-0.02,0.119-0.051,0.164-0.096c0.018-0.018,0.032-0.036,0.044-0.054
	c0.037-0.06,0.047-0.12,0.049-0.154C7.185,3.08,7.185,3.072,7.185,3.072s0-0.008,0-0.02c0-0.014-0.002-0.042-0.009-0.072
	C7.166,2.946,7.15,2.906,7.12,2.868C7.113,2.86,7.107,2.854,7.1,2.848C7.087,2.833,7.072,2.821,7.057,2.809
	C7.03,2.79,7,2.772,6.967,2.76C6.924,2.74,6.876,2.726,6.821,2.717c-0.025-0.005-0.055-0.01-0.084-0.012
	C6.718,2.702,6.701,2.701,6.681,2.7C6.664,2.699,6.647,2.699,6.63,2.699H6.165z"/>
<path fill="#120B14" d="M6.165,1.569v0.704h0.233c0,0,0.015,0,0.036-0.001c0.017,0,0.035-0.001,0.052-0.003
	C6.534,2.266,6.601,2.26,6.667,2.241c0.014-0.003,0.027-0.008,0.039-0.012C6.758,2.21,6.808,2.184,6.848,2.145
	c0.03-0.03,0.05-0.064,0.064-0.097c0.016-0.04,0.022-0.079,0.025-0.106c0.001-0.025,0.001-0.04,0.001-0.04s0-0.011,0-0.03
	c-0.001-0.03-0.008-0.08-0.032-0.128c-0.012-0.023-0.028-0.045-0.05-0.066C6.83,1.652,6.799,1.631,6.764,1.616
	C6.699,1.587,6.623,1.575,6.561,1.572C6.532,1.57,6.507,1.569,6.486,1.569H6.165z"/>
<path fill="#120B14" d="M5.677,1.139V3.86h1.025c0,0,0.5,0.013,0.775-0.262c0.224-0.225,0.209-0.485,0.209-0.485
	s0.015-0.271-0.193-0.479C7.316,2.458,7.09,2.41,7.09,2.41s0.102-0.047,0.181-0.126c0.037-0.037,0.167-0.155,0.167-0.442
	c0-0.288-0.192-0.454-0.192-0.454S7.035,1.139,6.561,1.139H5.677z M4.625,0.61h4.014v3.777H4.625V0.61z"/>
<path fill="#120B14" d="M1.54,2.699V3.44h0.482c0,0,0.01-0.001,0.025-0.001c0.016-0.001,0.04-0.002,0.068-0.004
	C2.167,3.431,2.236,3.42,2.303,3.398c0.06-0.02,0.118-0.051,0.164-0.096C2.485,3.285,2.499,3.267,2.51,3.249
	c0.038-0.06,0.047-0.12,0.049-0.154C2.561,3.08,2.561,3.072,2.561,3.072v-0.02C2.559,3.039,2.558,3.011,2.551,2.98
	c-0.01-0.035-0.027-0.075-0.057-0.113C2.489,2.86,2.483,2.854,2.476,2.848C2.462,2.833,2.449,2.821,2.433,2.809
	C2.406,2.79,2.376,2.772,2.344,2.76C2.3,2.74,2.251,2.726,2.198,2.717c-0.027-0.005-0.056-0.01-0.085-0.012
	C2.095,2.702,2.076,2.701,2.057,2.7C2.041,2.699,2.023,2.699,2.006,2.699H1.54z"/>
<path fill="#120B14" d="M1.54,1.569v0.704h0.234c0,0,0.015,0,0.035-0.001c0.017,0,0.036-0.001,0.053-0.003
	C1.91,2.266,1.977,2.26,2.043,2.241c0.013-0.003,0.025-0.008,0.039-0.012c0.051-0.019,0.102-0.045,0.14-0.084
	c0.031-0.03,0.051-0.064,0.065-0.097c0.016-0.04,0.023-0.079,0.025-0.106c0.002-0.025,0.002-0.04,0.002-0.04v-0.03
	c-0.003-0.03-0.008-0.08-0.032-0.128C2.27,1.721,2.253,1.699,2.233,1.678C2.206,1.652,2.174,1.631,2.139,1.616
	c-0.065-0.029-0.14-0.041-0.204-0.044C1.908,1.57,1.882,1.569,1.862,1.569H1.54z"/>
<path fill="#120B14" d="M1.053,1.139V3.86h1.024c0,0,0.5,0.013,0.775-0.262c0.224-0.225,0.209-0.485,0.209-0.485
	s0.015-0.271-0.193-0.479C2.691,2.458,2.466,2.41,2.466,2.41s0.102-0.047,0.18-0.126c0.037-0.037,0.168-0.155,0.168-0.442
	c0-0.288-0.193-0.454-0.193-0.454s-0.21-0.249-0.684-0.249H1.053z M0,0.61h4.014v3.777H0V0.61z"/>
<path fill="#120B14" d="M0,5.323v3.122h0.448V7.09h0.188c0.23,0,0.416,0.074,0.829,0.715l0.412,0.64h0.535
	C2.197,8.148,2.12,8.042,1.986,7.827C1.748,7.438,1.574,7.149,1.29,6.962C1.625,6.829,1.813,6.56,1.813,6.198
	c0-0.54-0.394-0.875-1.026-0.875H0z M0.448,5.708h0.289c0.434,0,0.609,0.178,0.613,0.472c0.005,0.26-0.133,0.508-0.613,0.508H0.448
	V5.708z"/>
<path fill="#120B14" d="M4.043,5.305H3.728l-1.342,3.14h0.457l0.395-0.919h1.328l0.416,0.919H5.44L4.043,5.305z M3.879,5.992
	l0.504,1.13H3.412L3.879,5.992z"/>
<path fill="#120B14" d="M5.813,8.445H7.03c1.03,0,1.656-0.76,1.656-1.56c0-0.737-0.507-1.562-1.661-1.562H5.813V8.445z M6.262,5.726
	h0.69c0.875,0,1.274,0.531,1.274,1.159c0,0.384-0.234,1.158-1.25,1.158H6.262V5.726z"/>
<rect x="9.204" y="5.322" fill="#120B14" width="0.448" height="3.122"/>
<path fill="#120B14" d="M10.169,6.884c0,0.847,0.647,1.602,1.667,1.602c1.058,0,1.69-0.76,1.69-1.602c0-0.87-0.65-1.602-1.681-1.602
	C10.833,5.282,10.169,6.02,10.169,6.884 M10.632,6.884c0-0.687,0.518-1.19,1.213-1.19c0.701,0,1.219,0.503,1.219,1.19
	c0,0.682-0.518,1.19-1.219,1.19C11.15,8.074,10.632,7.566,10.632,6.884"/>
<path fill="#120B14" d="M26.109,0c-5.466,0-9.896,4.433-9.896,9.9c0,5.469,4.43,9.9,9.896,9.9c5.465,0,9.896-4.432,9.896-9.9
	C36.003,4.433,31.574,0,26.109,0 M27.929,16.537h-3.484V7.066h-1.49l2.058-3.817h2.918L27.929,16.537L27.929,16.537z"/>
</svg>

<?xml version="1.0" encoding="UTF-8"?>
<svg width="40px" height="40px" viewBox="0 0 40 40" version="1.1" xmlns="http://www.w3.org/2000/svg" xmlns:xlink="http://www.w3.org/1999/xlink">
    <!-- Generator: Sketch 41.2 (35397) - http://www.bohemiancoding.com/sketch -->
    <title>Untitled 3</title>
    <desc>Created with Sketch.</desc>
    <defs></defs>
    <g id="Page-1" stroke="none" stroke-width="1" fill="none" fill-rule="evenodd">
        <rect id="radio4.large" fill="#FFFFFF" x="0" y="0" width="40" height="40"></rect>
        <g id="radio1.large" transform="translate(2.000000, 10.000000)">
            <g id="XMLID_15_" transform="translate(21.000000, 1.000000)">
                <rect id="Rectangle-path" fill="#FFFFFF" x="0.988" y="0.822" width="8.66" height="16.12"></rect>
                <rect id="Rectangle-path" stroke="#FF601F" x="0.988" y="0.822" width="8.66" height="16.12"></rect>
            </g>
            <path d="M11.778,1.136 C11.761,1.132 11.742,1.13 11.724,1.126 L11.702,1.123 C11.672,1.119 11.641,1.115 11.609,1.113 C11.588,1.11 11.566,1.109 11.545,1.108 C11.507,1.105 11.47,1.104 11.434,1.104 C11.418,1.104 11.407,1.105 11.391,1.105 C11.36,1.105 11.331,1.107 11.302,1.109 C11.286,1.11 11.269,1.111 11.254,1.113 C11.229,1.115 11.206,1.117 11.183,1.12 L11.163,1.123 L11.141,1.126 L11.114,1.131 C11.103,1.132 11.092,1.134 11.081,1.137 C11.064,1.139 11.048,1.142 11.034,1.146 C10.938,1.166 10.85,1.192 10.769,1.224 C10.727,1.241 10.687,1.258 10.649,1.277 C10.616,1.293 10.586,1.309 10.556,1.326 C10.528,1.342 10.501,1.359 10.474,1.377 C10.459,1.387 10.444,1.397 10.429,1.408 C10.416,1.417 10.404,1.425 10.392,1.434 C10.367,1.454 10.342,1.475 10.319,1.495 C10.298,1.514 10.277,1.533 10.257,1.552 C10.241,1.568 10.223,1.585 10.208,1.605 C10.191,1.622 10.175,1.641 10.16,1.66 C10.142,1.68 10.128,1.701 10.112,1.722 C10.099,1.739 10.089,1.755 10.078,1.772 C10.07,1.784 10.063,1.795 10.057,1.807 C10.014,1.874 9.978,1.948 9.947,2.026 C9.91,2.123 9.883,2.229 9.868,2.339 C9.864,2.375 9.86,2.41 9.857,2.447 C9.855,2.475 9.855,2.504 9.855,2.532 L9.855,2.596 C9.857,2.618 9.86,2.639 9.862,2.661 L9.864,2.676 C9.867,2.702 9.871,2.727 9.876,2.751 C9.878,2.762 9.88,2.771 9.882,2.781 C9.886,2.801 9.891,2.821 9.895,2.842 C9.903,2.867 9.91,2.894 9.919,2.918 C9.929,2.949 9.941,2.979 9.952,3.008 C9.972,3.054 9.994,3.098 10.015,3.14 C10.029,3.164 10.043,3.188 10.057,3.212 C10.069,3.23 10.08,3.247 10.092,3.265 C10.108,3.288 10.124,3.309 10.14,3.33 C10.157,3.352 10.175,3.372 10.193,3.392 C10.213,3.416 10.235,3.439 10.256,3.46 L10.266,3.471 C10.285,3.487 10.303,3.506 10.324,3.524 C10.339,3.536 10.354,3.55 10.371,3.562 C10.386,3.574 10.402,3.587 10.419,3.599 C10.44,3.614 10.46,3.628 10.483,3.643 C10.508,3.657 10.533,3.673 10.559,3.689 C10.612,3.718 10.671,3.747 10.735,3.773 C10.759,3.783 10.784,3.791 10.81,3.8 C10.835,3.809 10.861,3.817 10.888,3.825 C10.935,3.838 10.984,3.85 11.034,3.86 C11.075,3.868 11.119,3.874 11.163,3.879 C11.206,3.885 11.252,3.889 11.298,3.891 C11.322,3.893 11.345,3.893 11.368,3.895 L11.401,3.895 C11.486,3.895 11.563,3.891 11.636,3.885 L11.65,3.884 C11.679,3.882 11.706,3.878 11.733,3.874 C11.776,3.87 11.814,3.864 11.851,3.857 C11.875,3.853 11.898,3.848 11.92,3.844 C11.956,3.836 11.988,3.827 12.019,3.82 C12.043,3.814 12.065,3.807 12.087,3.8 C12.113,3.793 12.137,3.784 12.161,3.776 L12.184,3.769 C12.195,3.764 12.211,3.759 12.228,3.752 C12.253,3.743 12.282,3.731 12.315,3.716 C12.335,3.708 12.357,3.698 12.379,3.689 C12.397,3.679 12.419,3.669 12.44,3.659 C12.448,3.655 12.458,3.65 12.467,3.647 L12.467,3.131 C12.46,3.135 12.453,3.139 12.448,3.143 L12.413,3.163 C12.377,3.185 12.343,3.205 12.309,3.224 C12.273,3.244 12.235,3.263 12.198,3.281 C12.135,3.311 12.074,3.336 12.015,3.357 C11.902,3.397 11.8,3.422 11.709,3.439 C11.698,3.44 11.687,3.442 11.677,3.444 C11.651,3.447 11.628,3.451 11.604,3.453 C11.569,3.457 11.535,3.459 11.506,3.46 C11.486,3.461 11.468,3.462 11.451,3.462 C11.415,3.462 11.377,3.461 11.338,3.458 C11.293,3.455 11.248,3.449 11.201,3.442 C11.127,3.429 11.052,3.41 10.98,3.384 C10.968,3.381 10.958,3.376 10.947,3.371 C10.94,3.369 10.933,3.366 10.925,3.363 C10.914,3.358 10.902,3.353 10.89,3.348 C10.865,3.336 10.84,3.323 10.815,3.309 C10.804,3.302 10.792,3.294 10.779,3.287 C10.768,3.279 10.755,3.271 10.743,3.262 C10.728,3.253 10.713,3.242 10.699,3.23 C10.684,3.219 10.671,3.207 10.658,3.197 L10.641,3.182 L10.633,3.174 L10.628,3.169 L10.621,3.163 C10.598,3.14 10.577,3.117 10.557,3.093 C10.547,3.081 10.537,3.067 10.526,3.055 C10.517,3.042 10.509,3.029 10.501,3.016 C10.492,3.004 10.485,2.992 10.478,2.979 C10.467,2.962 10.457,2.944 10.448,2.925 C10.441,2.91 10.434,2.894 10.428,2.88 C10.416,2.854 10.407,2.828 10.4,2.802 C10.393,2.784 10.388,2.763 10.382,2.745 C10.37,2.692 10.363,2.644 10.359,2.6 C10.356,2.584 10.356,2.569 10.355,2.555 C10.354,2.535 10.354,2.518 10.354,2.503 L10.354,2.471 C10.355,2.441 10.359,2.404 10.364,2.362 C10.368,2.335 10.373,2.308 10.38,2.279 C10.385,2.259 10.39,2.24 10.396,2.22 C10.402,2.202 10.408,2.184 10.416,2.164 C10.42,2.151 10.426,2.139 10.432,2.126 C10.439,2.108 10.448,2.091 10.457,2.074 C10.464,2.06 10.471,2.047 10.479,2.034 C10.496,2.005 10.515,1.975 10.537,1.946 C10.544,1.936 10.553,1.925 10.561,1.915 C10.572,1.902 10.583,1.888 10.595,1.875 C10.602,1.869 10.608,1.862 10.614,1.856 C10.709,1.762 10.815,1.691 10.924,1.641 C10.942,1.633 10.959,1.626 10.976,1.619 C10.994,1.612 11.011,1.606 11.029,1.6 C11.047,1.593 11.066,1.588 11.086,1.583 C11.104,1.577 11.123,1.573 11.141,1.568 C11.159,1.564 11.177,1.561 11.195,1.557 C11.215,1.554 11.234,1.551 11.255,1.548 C11.274,1.546 11.294,1.543 11.314,1.542 C11.352,1.539 11.388,1.537 11.423,1.537 C11.437,1.537 11.448,1.537 11.46,1.538 C11.487,1.538 11.512,1.539 11.538,1.54 C11.556,1.542 11.573,1.542 11.59,1.544 C11.622,1.548 11.654,1.551 11.683,1.556 C11.71,1.56 11.736,1.564 11.759,1.568 C11.796,1.577 11.83,1.585 11.861,1.593 C11.88,1.597 11.898,1.603 11.915,1.608 C11.939,1.616 11.961,1.622 11.978,1.628 C12.006,1.638 12.022,1.643 12.022,1.643 C12.047,1.652 12.072,1.663 12.097,1.672 C12.13,1.686 12.161,1.699 12.191,1.713 C12.216,1.725 12.239,1.737 12.261,1.746 C12.28,1.756 12.297,1.765 12.313,1.773 C12.341,1.788 12.365,1.801 12.385,1.812 L12.438,1.84 L12.438,1.334 C12.438,1.334 12.405,1.321 12.351,1.3 C12.327,1.292 12.298,1.281 12.265,1.27 C12.248,1.263 12.229,1.256 12.209,1.249 C12.193,1.245 12.177,1.239 12.159,1.233 C12.14,1.228 12.121,1.22 12.1,1.214 C12.084,1.21 12.07,1.204 12.053,1.2 L12.04,1.196 C12.025,1.192 12.009,1.188 11.995,1.184 C11.976,1.179 11.957,1.174 11.939,1.169 C11.927,1.167 11.914,1.164 11.902,1.161 C11.881,1.156 11.862,1.151 11.841,1.147 C11.82,1.143 11.8,1.139 11.778,1.136 L11.778,1.136 Z M9.249,0.61 L13.263,0.61 L13.263,4.387 L9.249,4.387 L9.249,0.61 Z" id="Shape" fill="#120B14"></path>
            <path d="M6.165,2.699 L6.165,3.44 L6.646,3.44 C6.646,3.44 6.657,3.439 6.671,3.439 C6.688,3.438 6.711,3.437 6.739,3.435 C6.791,3.431 6.86,3.42 6.927,3.398 C6.988,3.378 7.046,3.347 7.091,3.302 C7.109,3.284 7.123,3.266 7.135,3.248 C7.172,3.188 7.182,3.128 7.184,3.094 C7.185,3.08 7.185,3.072 7.185,3.072 L7.185,3.052 C7.185,3.038 7.183,3.01 7.176,2.98 C7.166,2.946 7.15,2.906 7.12,2.868 C7.113,2.86 7.107,2.854 7.1,2.848 C7.087,2.833 7.072,2.821 7.057,2.809 C7.03,2.79 7,2.772 6.967,2.76 C6.924,2.74 6.876,2.726 6.821,2.717 C6.796,2.712 6.766,2.707 6.737,2.705 C6.718,2.702 6.701,2.701 6.681,2.7 C6.664,2.699 6.647,2.699 6.63,2.699 L6.165,2.699 Z" id="Shape" fill="#120B14"></path>
            <path d="M6.165,1.569 L6.165,2.273 L6.398,2.273 C6.398,2.273 6.413,2.273 6.434,2.272 C6.451,2.272 6.469,2.271 6.486,2.269 C6.534,2.266 6.601,2.26 6.667,2.241 C6.681,2.238 6.694,2.233 6.706,2.229 C6.758,2.21 6.808,2.184 6.848,2.145 C6.878,2.115 6.898,2.081 6.912,2.048 C6.928,2.008 6.934,1.969 6.937,1.942 C6.938,1.917 6.938,1.902 6.938,1.902 L6.938,1.872 C6.937,1.842 6.93,1.792 6.906,1.744 C6.894,1.721 6.878,1.699 6.856,1.678 C6.83,1.652 6.799,1.631 6.764,1.616 C6.699,1.587 6.623,1.575 6.561,1.572 C6.532,1.57 6.507,1.569 6.486,1.569 L6.165,1.569 Z" id="Shape" fill="#120B14"></path>
            <path d="M5.677,1.139 L5.677,3.86 L6.702,3.86 C6.702,3.86 7.202,3.873 7.477,3.598 C7.701,3.373 7.686,3.113 7.686,3.113 C7.686,3.113 7.701,2.842 7.493,2.634 C7.316,2.458 7.09,2.41 7.09,2.41 C7.09,2.41 7.192,2.363 7.271,2.284 C7.308,2.247 7.438,2.129 7.438,1.842 C7.438,1.554 7.246,1.388 7.246,1.388 C7.246,1.388 7.035,1.139 6.561,1.139 L5.677,1.139 Z M4.625,0.61 L8.639,0.61 L8.639,4.387 L4.625,4.387 L4.625,0.61 Z" id="Shape" fill="#120B14"></path>
            <path d="M1.54,2.699 L1.54,3.44 L2.022,3.44 C2.022,3.44 2.032,3.439 2.047,3.439 C2.063,3.438 2.087,3.437 2.115,3.435 C2.167,3.431 2.236,3.42 2.303,3.398 C2.363,3.378 2.421,3.347 2.467,3.302 C2.485,3.285 2.499,3.267 2.51,3.249 C2.548,3.189 2.557,3.129 2.559,3.095 C2.561,3.08 2.561,3.072 2.561,3.072 L2.561,3.052 C2.559,3.039 2.558,3.011 2.551,2.98 C2.541,2.945 2.524,2.905 2.494,2.867 C2.489,2.86 2.483,2.854 2.476,2.848 C2.462,2.833 2.449,2.821 2.433,2.809 C2.406,2.79 2.376,2.772 2.344,2.76 C2.3,2.74 2.251,2.726 2.198,2.717 C2.171,2.712 2.142,2.707 2.113,2.705 C2.095,2.702 2.076,2.701 2.057,2.7 C2.041,2.699 2.023,2.699 2.006,2.699 L1.54,2.699 Z" id="Shape" fill="#120B14"></path>
            <path d="M1.54,1.569 L1.54,2.273 L1.774,2.273 C1.774,2.273 1.789,2.273 1.809,2.272 C1.826,2.272 1.845,2.271 1.862,2.269 C1.91,2.266 1.977,2.26 2.043,2.241 C2.056,2.238 2.068,2.233 2.082,2.229 C2.133,2.21 2.184,2.184 2.222,2.145 C2.253,2.115 2.273,2.081 2.287,2.048 C2.303,2.008 2.31,1.969 2.312,1.942 C2.314,1.917 2.314,1.902 2.314,1.902 L2.314,1.872 C2.311,1.842 2.306,1.792 2.282,1.744 C2.27,1.721 2.253,1.699 2.233,1.678 C2.206,1.652 2.174,1.631 2.139,1.616 C2.074,1.587 1.999,1.575 1.935,1.572 C1.908,1.57 1.882,1.569 1.862,1.569 L1.54,1.569 Z" id="Shape" fill="#120B14"></path>
            <path d="M1.053,1.139 L1.053,3.86 L2.077,3.86 C2.077,3.86 2.577,3.873 2.852,3.598 C3.076,3.373 3.061,3.113 3.061,3.113 C3.061,3.113 3.076,2.842 2.868,2.634 C2.691,2.458 2.466,2.41 2.466,2.41 C2.466,2.41 2.568,2.363 2.646,2.284 C2.683,2.247 2.814,2.129 2.814,1.842 C2.814,1.554 2.621,1.388 2.621,1.388 C2.621,1.388 2.411,1.139 1.937,1.139 L1.053,1.139 L1.053,1.139 Z M0,0.61 L4.014,0.61 L4.014,4.387 L0,4.387 L0,0.61 Z" id="Shape" fill="#120B14"></path>
            <path d="M0,5.323 L0,8.445 L0.448,8.445 L0.448,7.09 L0.636,7.09 C0.866,7.09 1.052,7.164 1.465,7.805 L1.877,8.445 L2.412,8.445 C2.197,8.148 2.12,8.042 1.986,7.827 C1.748,7.438 1.574,7.149 1.29,6.962 C1.625,6.829 1.813,6.56 1.813,6.198 C1.813,5.658 1.419,5.323 0.787,5.323 L0,5.323 Z M0.448,5.708 L0.737,5.708 C1.171,5.708 1.346,5.886 1.35,6.18 C1.355,6.44 1.217,6.688 0.737,6.688 L0.448,6.688 L0.448,5.708 Z" id="Shape" fill="#120B14"></path>
            <path d="M4.043,5.305 L3.728,5.305 L2.386,8.445 L2.843,8.445 L3.238,7.526 L4.566,7.526 L4.982,8.445 L5.44,8.445 L4.043,5.305 Z M3.879,5.992 L4.383,7.122 L3.412,7.122 L3.879,5.992 Z" id="Shape" fill="#120B14"></path>
            <path d="M5.813,8.445 L7.03,8.445 C8.06,8.445 8.686,7.685 8.686,6.885 C8.686,6.148 8.179,5.323 7.025,5.323 L5.813,5.323 L5.813,8.445 Z M6.262,5.726 L6.952,5.726 C7.827,5.726 8.226,6.257 8.226,6.885 C8.226,7.269 7.992,8.043 6.976,8.043 L6.262,8.043 L6.262,5.726 Z" id="Shape" fill="#120B14"></path>
            <rect id="Rectangle-path" fill="#120B14" x="9.204" y="5.322" width="0.448" height="3.122"></rect>
            <path d="M10.169,6.884 C10.169,7.731 10.816,8.486 11.836,8.486 C12.894,8.486 13.526,7.726 13.526,6.884 C13.526,6.014 12.876,5.282 11.845,5.282 C10.833,5.282 10.169,6.02 10.169,6.884 M10.632,6.884 C10.632,6.197 11.15,5.694 11.845,5.694 C12.546,5.694 13.064,6.197 13.064,6.884 C13.064,7.566 12.546,8.074 11.845,8.074 C11.15,8.074 10.632,7.566 10.632,6.884" id="Shape" fill="#120B14"></path>
            <path d="M26.109,0 C20.643,0 16.213,4.433 16.213,9.9 C16.213,15.369 20.643,19.8 26.109,19.8 C31.574,19.8 36.005,15.368 36.005,9.9 C36.003,4.433 31.574,0 26.109,0 L26.109,0 Z M27.929,16.537 L24.445,16.537 L24.445,7.066 L22.955,7.066 L25.013,3.249 L27.931,3.249 L27.929,16.537 L27.929,16.537 Z" id="Shape" fill="#120B14"></path>
        </g>
    </g>
</svg>
